static/img/kroki/f0519981e878fa2f74370d47d947cd50.svg

<?xml version="1.0" encoding="us-ascii" standalone="no"?><svg xmlns="http://www.w3.org/2000/svg" xmlns:xlink="http://www.w3.org/1999/xlink" contentStyleType="text/css" height="352px" preserveAspectRatio="none" style="width:517px;height:352px;" version="1.1" viewBox="0 0 517 352" width="517px" zoomAndPan="magnify"><defs/><g><!--class aws_ec2_security_group--><g id="elem_aws_ec2_security_group"><rect codeLine="22" fill="#3D176E" height="39.7891" id="aws_ec2_security_group" rx="2.5" ry="2.5" style="stroke:#000D19;stroke-width:0.5;" width="245" x="220" y="7"/><ellipse cx="235" cy="26.8945" fill="#ADD1B2" rx="11" ry="11" style="stroke:#181818;stroke-width:1.0;"/><path d="M237.9688,32.5352 Q237.3906,32.832 236.75,32.9727 Q236.1094,33.1289 235.4063,33.1289 Q232.9063,33.1289 231.5781,31.4883 Q230.2656,29.832 230.2656,26.707 Q230.2656,23.582 231.5781,21.9258 Q232.9063,20.2695 235.4063,20.2695 Q236.1094,20.2695 236.75,20.4258 Q237.4063,20.582 237.9688,20.8789 L237.9688,23.5977 Q237.3438,23.0195 236.75,22.7539 Q236.1563,22.4727 235.5313,22.4727 Q234.1875,22.4727 233.5,23.5508 Q232.8125,24.6133 232.8125,26.707 Q232.8125,28.8008 233.5,29.8789 Q234.1875,30.9414 235.5313,30.9414 Q236.1563,30.9414 236.75,30.6758 Q237.3438,30.3945 237.9688,29.8164 L237.9688,32.5352 Z " fill="#000000"/><text fill="#D9B8FF" font-family="Helvetica" font-size="17" lengthAdjust="spacing" textLength="203" x="254" y="32.7798">aws_ec2_security_group</text></g><!--class aws_kinesis_stream--><g id="elem_aws_kinesis_stream"><rect codeLine="24" fill="#3D176E" height="39.7891" id="aws_kinesis_stream" rx="2.5" ry="2.5" style="stroke:#000D19;stroke-width:0.5;" width="209" x="7" y="206.58"/><ellipse cx="22" cy="226.4745" fill="#ADD1B2" rx="11" ry="11" style="stroke:#181818;stroke-width:1.0;"/><path d="M24.9688,232.1152 Q24.3906,232.412 23.75,232.5527 Q23.1094,232.7089 22.4063,232.7089 Q19.9063,232.7089 18.5781,231.0683 Q17.2656,229.412 17.2656,226.287 Q17.2656,223.162 18.5781,221.5058 Q19.9063,219.8495 22.4063,219.8495 Q23.1094,219.8495 23.75,220.0058 Q24.4063,220.162 24.9688,220.4589 L24.9688,223.1777 Q24.3438,222.5995 23.75,222.3339 Q23.1563,222.0527 22.5313,222.0527 Q21.1875,222.0527 20.5,223.1308 Q19.8125,224.1933 19.8125,226.287 Q19.8125,228.3808 20.5,229.4589 Q21.1875,230.5214 22.5313,230.5214 Q23.1563,230.5214 23.75,230.2558 Q24.3438,229.9745 24.9688,229.3964 L24.9688,232.1152 Z " fill="#000000"/><text fill="#D9B8FF" font-family="Helvetica" font-size="17" lengthAdjust="spacing" textLength="167" x="41" y="232.3598">aws_kinesis_stream</text></g><!--class aws_kms_key--><g id="elem_aws_kms_key"><rect codeLine="26" fill="#3D176E" height="39.7891" id="aws_kms_key" rx="2.5" ry="2.5" style="stroke:#000D19;stroke-width:0.5;" width="158" x="190.5" y="306.37"/><ellipse cx="205.5" cy="326.2645" fill="#ADD1B2" rx="11" ry="11" style="stroke:#181818;stroke-width:1.0;"/><path d="M208.4688,331.9052 Q207.8906,332.202 207.25,332.3427 Q206.6094,332.4989 205.9063,332.4989 Q203.4063,332.4989 202.0781,330.8583 Q200.7656,329.202 200.7656,326.077 Q200.7656,322.952 202.0781,321.2958 Q203.4063,319.6395 205.9063,319.6395 Q206.6094,319.6395 207.25,319.7958 Q207.9063,319.952 208.4688,320.2489 L208.4688,322.9677 Q207.8438,322.3895 207.25,322.1239 Q206.6563,321.8427 206.0313,321.8427 Q204.6875,321.8427 204,322.9208 Q203.3125,323.9833 203.3125,326.077 Q203.3125,328.1708 204,329.2489 Q204.6875,330.3114 206.0313,330.3114 Q206.6563,330.3114 207.25,330.0458 Q207.8438,329.7645 208.4688,329.1864 L208.4688,331.9052 Z " fill="#000000"/><text fill="#D9B8FF" font-family="Helvetica" font-size="17" lengthAdjust="spacing" textLength="116" x="224.5" y="332.1498">aws_kms_key</text></g><!--class aws_rds_cluster--><g id="elem_aws_rds_cluster"><rect codeLine="28" fill="#3D176E" height="39.7891" id="aws_rds_cluster" rx="2.5" ry="2.5" style="stroke:#000D19;stroke-width:0.5;" width="174" x="185.5" y="106.79"/><ellipse cx="200.5" cy="126.6845" fill="#ADD1B2" rx="11" ry="11" style="stroke:#181818;stroke-width:1.0;"/><path d="M203.4688,132.3252 Q202.8906,132.622 202.25,132.7627 Q201.6094,132.9189 200.9063,132.9189 Q198.4063,132.9189 197.0781,131.2783 Q195.7656,129.622 195.7656,126.497 Q195.7656,123.372 197.0781,121.7158 Q198.4063,120.0595 200.9063,120.0595 Q201.6094,120.0595 202.25,120.2158 Q202.9063,120.372 203.4688,120.6689 L203.4688,123.3877 Q202.8438,122.8095 202.25,122.5439 Q201.6563,122.2627 201.0313,122.2627 Q199.6875,122.2627 199,123.3408 Q198.3125,124.4033 198.3125,126.497 Q198.3125,128.5908 199,129.6689 Q199.6875,130.7314 201.0313,130.7314 Q201.6563,130.7314 202.25,130.4658 Q202.8438,130.1845 203.4688,129.6064 L203.4688,132.3252 Z " fill="#000000"/><text fill="#D9B8FF" font-family="Helvetica" font-size="17" lengthAdjust="spacing" textLength="132" x="219.5" y="132.5698">aws_rds_cluster</text></g><!--class aws_rds_instance--><g id="elem_aws_rds_instance"><rect codeLine="30" fill="#3D176E" height="39.7891" id="aws_rds_instance" rx="2.5" ry="2.5" style="stroke:#000D19;stroke-width:0.5;" width="188" x="322.5" y="206.58"/><ellipse cx="337.5" cy="226.4745" fill="#ADD1B2" rx="11" ry="11" style="stroke:#181818;stroke-width:1.0;"/><path d="M340.4688,232.1152 Q339.8906,232.412 339.25,232.5527 Q338.6094,232.7089 337.9063,232.7089 Q335.4063,232.7089 334.0781,231.0683 Q332.7656,229.412 332.7656,226.287 Q332.7656,223.162 334.0781,221.5058 Q335.4063,219.8495 337.9063,219.8495 Q338.6094,219.8495 339.25,220.0058 Q339.9063,220.162 340.4688,220.4589 L340.4688,223.1777 Q339.8438,222.5995 339.25,222.3339 Q338.6563,222.0527 338.0313,222.0527 Q336.6875,222.0527 336,223.1308 Q335.3125,224.1933 335.3125,226.287 Q335.3125,228.3808 336,229.4589 Q336.6875,230.5214 338.0313,230.5214 Q338.6563,230.5214 339.25,230.2558 Q339.8438,229.9745 340.4688,229.3964 L340.4688,232.1152 Z " fill="#000000"/><text fill="#D9B8FF" font-family="Helvetica" font-size="17" lengthAdjust="spacing" textLength="146" x="356.5" y="232.3598">aws_rds_instance</text></g><!--link aws_ec2_security_group to aws_rds_cluster--><g id="link_aws_ec2_security_group_aws_rds_cluster"><path codeLine="32" d="M328.67,47.22 C316.4,64.36 302.052,84.4009 289.792,101.5309 " fill="none" id="aws_ec2_security_group-to-aws_rds_cluster" style="stroke:#1A83AF;stroke-width:2.0;"/><polygon fill="#1A83AF" points="286.3,106.41,294.7908,101.4193,289.21,102.3441,288.2853,96.7633,286.3,106.41" style="stroke:#1A83AF;stroke-width:2.0;"/></g><!--link aws_ec2_security_group to aws_rds_instance--><g id="link_aws_ec2_security_group_aws_rds_instance"><path codeLine="33" d="M351.68,47.13 C359.08,62.96 369.53,86.1 377.5,106.79 C390.83,141.4 402.0212,176.9844 409.1312,200.6144 " fill="none" id="aws_ec2_security_group-to-aws_rds_instance" style="stroke:#1A83AF;stroke-width:2.0;"/><polygon fill="#1A83AF" points="410.86,206.36,412.0972,196.5892,409.4194,201.572,404.4365,198.8942,410.86,206.36" style="stroke:#1A83AF;stroke-width:2.0;"/></g><!--link aws_kinesis_stream to aws_kms_key--><g id="link_aws_kinesis_stream_aws_kms_key"><path codeLine="34" d="M142.72,246.8 C170.42,263.94 205.5688,285.6912 233.2488,302.8312 " fill="none" id="aws_kinesis_stream-to-aws_kms_key" style="stroke:#1A83AF;stroke-width:2.0;"/><polygon fill="#1A83AF" points="238.35,305.99,232.804,297.8511,234.099,303.3577,228.5924,304.6527,238.35,305.99" style="stroke:#1A83AF;stroke-width:2.0;"/></g><!--link aws_rds_cluster to aws_kinesis_stream--><g id="link_aws_rds_cluster_aws_kinesis_stream"><path codeLine="35" d="M240.69,147.01 C212.47,164.15 176.5777,185.9445 148.3677,203.0845 " fill="none" id="aws_rds_cluster-to-aws_kinesis_stream" style="stroke:#1A83AF;stroke-width:2.0;"/><polygon fill="#1A83AF" points="143.24,206.2,153.0086,204.9452,147.5131,203.6037,148.8546,198.1082,143.24,206.2" style="stroke:#1A83AF;stroke-width:2.0;"/></g><!--link aws_rds_cluster to aws_kms_key--><g id="link_aws_rds_cluster_aws_kms_key"><path codeLine="36" d="M272.21,146.99 C271.63,184.76 270.462,262.0507 269.882,299.8807 " fill="none" id="aws_rds_cluster-to-aws_kms_key" style="stroke:#1A83AF;stroke-width:2.0;"/><polygon fill="#1A83AF" points="269.79,305.88,273.9275,296.9424,269.8666,300.8806,265.9284,296.8197,269.79,305.88" style="stroke:#1A83AF;stroke-width:2.0;"/></g><!--link aws_rds_cluster to aws_rds_instance--><g id="link_aws_rds_cluster_aws_rds_instance"><path codeLine="37" d="M300.95,147.01 C326.19,164.15 357.9169,185.6883 383.1469,202.8283 " fill="none" id="aws_rds_cluster-to-aws_rds_instance" style="stroke:#1A83AF;stroke-width:2.0;"/><polygon fill="#1A83AF" points="388.11,206.2,382.9132,197.8338,383.9741,203.3903,378.4176,204.4512,388.11,206.2" style="stroke:#1A83AF;stroke-width:2.0;"/></g><!--link aws_rds_instance to aws_kms_key--><g id="link_aws_rds_instance_aws_kms_key"><path codeLine="38" d="M387.46,246.8 C361.69,263.94 329.2353,285.5263 303.4753,302.6663 " fill="none" id="aws_rds_instance-to-aws_kms_key" style="stroke:#1A83AF;stroke-width:2.0;"/><polygon fill="#1A83AF" points="298.48,305.99,308.1887,304.3346,302.6427,303.2202,303.7571,297.6742,298.48,305.99" style="stroke:#1A83AF;stroke-width:2.0;"/></g><!--SRC=[bP1BRy8m48Jl-HMME2FnK0jSAgL8gBsWglHMLP6nDs2HsD6kKvHM_UzDU5J69a0FlknydftPjPB082zinNB8bu0KqKRfWYFFMOnejbEJ6MITDENfSEIBCwFjLM3ESs1Fa7s2LOBxnDjQYOq68ZPmf4SkDYiqfPPxUujSKos1jWurpJXHR2sgPMd12ICdot6Q-gHlsXdA_kWU0ioW13mWlLvFzYS-SdNLnTv_n49z0UkxHviR2q7COCMEkfYo8PoGGT6ZtfhnXKkfz8hTERFNVIRKW2VpnPfBisteb6VahY4B2CPM1Ko3LZ0PotHq5dvkWqLpESQtb80O90IYH6Mhf44BzXtzE41j2wGe8OjGctjYNZ-el2bAIaHMDZdEA4gJvLh0Jcg9q7tlzEFnC9vzT1zyot_zEIwBpbG9FXpQH7w743mnke6_rJY8V7AmDjzV]--></g></svg>

<svg xmlns="http://www.w3.org/2000/svg" width="517" height="352" viewBox="0 0 517 352"><rect width="245" height="39.789" x="220" y="7" fill="#3D176E" rx="2.5" ry="2.5" style="stroke:#000d19;stroke-width:.5"/><circle cx="235" cy="26.895" r="11" fill="#ADD1B2" style="stroke:#181818;stroke-width:1"/><path d="M237.969 32.535q-.578.297-1.219.438-.64.156-1.344.156-2.5 0-3.828-1.64-1.312-1.657-1.312-4.782t1.312-4.781q1.328-1.656 3.828-1.656.703 0 1.344.156.656.156 1.219.453v2.719q-.625-.578-1.219-.844-.594-.281-1.219-.281-1.344 0-2.031 1.078-.687 1.062-.687 3.156t.687 3.172q.688 1.062 2.031 1.062.625 0 1.219-.265.594-.281 1.219-.86z"/><text x="254" y="32.78" fill="#D9B8FF" font-family="Helvetica" font-size="17" textLength="203">aws_ec2_security_group</text><rect width="209" height="39.789" x="7" y="206.58" fill="#3D176E" rx="2.5" ry="2.5" style="stroke:#000d19;stroke-width:.5"/><circle cx="22" cy="226.475" r="11" fill="#ADD1B2" style="stroke:#181818;stroke-width:1"/><path d="M24.969 232.115q-.578.297-1.219.438-.64.156-1.344.156-2.5 0-3.828-1.64-1.312-1.657-1.312-4.782t1.312-4.781q1.328-1.656 3.828-1.656.703 0 1.344.156.656.156 1.219.453v2.719q-.625-.578-1.219-.844-.594-.281-1.219-.281-1.343 0-2.031 1.078-.687 1.062-.687 3.156t.687 3.172q.688 1.062 2.031 1.062.625 0 1.219-.265.594-.281 1.219-.86z"/><text x="41" y="232.36" fill="#D9B8FF" font-family="Helvetica" font-size="17" textLength="167">aws_kinesis_stream</text><rect width="158" height="39.789" x="190.5" y="306.37" fill="#3D176E" rx="2.5" ry="2.5" style="stroke:#000d19;stroke-width:.5"/><circle cx="205.5" cy="326.264" r="11" fill="#ADD1B2" style="stroke:#181818;stroke-width:1"/><path d="M208.469 331.905q-.578.297-1.219.438-.64.156-1.344.156-2.5 0-3.828-1.64-1.312-1.657-1.312-4.782t1.312-4.781q1.328-1.656 3.828-1.656.703 0 1.344.156.656.156 1.219.453v2.719q-.625-.579-1.219-.844-.594-.281-1.219-.281-1.344 0-2.031 1.078-.687 1.062-.687 3.156t.687 3.172q.688 1.062 2.031 1.062.625 0 1.219-.265.594-.281 1.219-.86z"/><text x="224.5" y="332.15" fill="#D9B8FF" font-family="Helvetica" font-size="17" textLength="116">aws_kms_key</text><rect width="174" height="39.789" x="185.5" y="106.79" fill="#3D176E" rx="2.5" ry="2.5" style="stroke:#000d19;stroke-width:.5"/><circle cx="200.5" cy="126.684" r="11" fill="#ADD1B2" style="stroke:#181818;stroke-width:1"/><path d="M203.469 132.325q-.578.297-1.219.438-.64.156-1.344.156-2.5 0-3.828-1.64-1.312-1.657-1.312-4.782t1.312-4.781q1.328-1.656 3.828-1.656.703 0 1.344.156.656.156 1.219.453v2.719q-.625-.579-1.219-.844-.594-.281-1.219-.281-1.344 0-2.031 1.078-.687 1.062-.687 3.156t.687 3.172q.688 1.062 2.031 1.062.625 0 1.219-.265.594-.281 1.219-.86z"/><text x="219.5" y="132.57" fill="#D9B8FF" font-family="Helvetica" font-size="17" textLength="132">aws_rds_cluster</text><rect width="188" height="39.789" x="322.5" y="206.58" fill="#3D176E" rx="2.5" ry="2.5" style="stroke:#000d19;stroke-width:.5"/><circle cx="337.5" cy="226.475" r="11" fill="#ADD1B2" style="stroke:#181818;stroke-width:1"/><path d="M340.469 232.115q-.578.297-1.219.438-.64.156-1.344.156-2.5 0-3.828-1.64-1.312-1.657-1.312-4.782t1.312-4.781q1.328-1.656 3.828-1.656.703 0 1.344.156.656.156 1.219.453v2.719q-.625-.578-1.219-.844-.594-.281-1.219-.281-1.344 0-2.031 1.078-.687 1.062-.687 3.156t.687 3.172q.688 1.062 2.031 1.062.625 0 1.219-.265.594-.281 1.219-.86z"/><text x="356.5" y="232.36" fill="#D9B8FF" font-family="Helvetica" font-size="17" textLength="146">aws_rds_instance</text><path fill="none" d="M328.67 47.22c-12.27 17.14-26.618 37.18-38.878 54.31" style="stroke:#1a83af;stroke-width:2"/><path fill="#1A83AF" d="m286.3 106.41 8.49-4.99-5.58.924-.925-5.58z" style="stroke:#1a83af;stroke-width:2"/><path fill="none" d="M351.68 47.13c7.4 15.83 17.85 38.97 25.82 59.66 13.33 34.61 24.521 70.194 31.631 93.824" style="stroke:#1a83af;stroke-width:2"/><path fill="#1A83AF" d="m410.86 206.36 1.237-9.77-2.678 4.982-4.982-2.678z" style="stroke:#1a83af;stroke-width:2"/><path fill="none" d="M142.72 246.8c27.7 17.14 62.849 38.891 90.529 56.031" style="stroke:#1a83af;stroke-width:2"/><path fill="#1A83AF" d="m238.35 305.99-5.546-8.139 1.295 5.507-5.507 1.295z" style="stroke:#1a83af;stroke-width:2"/><path fill="none" d="M240.69 147.01c-28.22 17.14-64.112 38.935-92.322 56.075" style="stroke:#1a83af;stroke-width:2"/><path fill="#1A83AF" d="m143.24 206.2 9.769-1.255-5.496-1.341 1.342-5.496z" style="stroke:#1a83af;stroke-width:2"/><path fill="none" d="M272.21 146.99c-.58 37.77-1.748 115.06-2.328 152.89" style="stroke:#1a83af;stroke-width:2"/><path fill="#1A83AF" d="m269.79 305.88 4.137-8.938-4.06 3.939-3.939-4.061z" style="stroke:#1a83af;stroke-width:2"/><path fill="none" d="M300.95 147.01c25.24 17.14 56.967 38.678 82.197 55.818" style="stroke:#1a83af;stroke-width:2"/><path fill="#1A83AF" d="m388.11 206.2-5.197-8.366 1.061 5.556-5.556 1.061z" style="stroke:#1a83af;stroke-width:2"/><path fill="none" d="M387.46 246.8c-25.77 17.14-58.225 38.726-83.985 55.866" style="stroke:#1a83af;stroke-width:2"/><path fill="#1A83AF" d="m298.48 305.99 9.709-1.655-5.546-1.115 1.114-5.546z" style="stroke:#1a83af;stroke-width:2"/></svg>
